public/img/4747499_github_icon.svg

<?xml version="1.0" ?><svg fill="none" height="25" viewBox="0 0 25 25" width="25" xmlns="http://www.w3.org/2000/svg"><path clip-rule="evenodd" d="M15.7481 24.9471C24.0901 24.7061 24.9111 22.9501 24.9111 12.9811C24.9111 1.98108 23.9111 0.981079 12.9111 0.981079C1.91113 0.981079 0.911133 1.98108 0.911133 12.9811C0.911133 22.9761 1.73713 24.7151 10.1391 24.9491C10.2121 24.8581 10.2391 24.7441 10.2391 24.6281C10.2391 24.3781 10.2291 21.8121 10.2241 20.9291C7.18713 21.5681 6.54613 19.5101 6.54613 19.5101C6.04913 18.2881 5.33313 17.9621 5.33313 17.9621C4.34213 17.3061 5.40813 17.3191 5.40813 17.3191C6.50413 17.3941 7.08113 18.4101 7.08113 18.4101C8.05513 20.0271 9.63713 19.5601 10.2591 19.2891C10.3581 18.6061 10.6401 18.1391 10.9521 17.8751C8.52713 17.6081 5.97813 16.7001 5.97813 12.6451C5.97813 11.4901 6.40413 10.5461 7.10213 9.80608C6.98913 9.53808 6.61513 8.46208 7.20913 7.00608C7.20913 7.00608 8.12613 6.72108 10.2121 8.09008C11.0831 7.85508 12.0171 7.73808 12.9461 7.73408C13.8731 7.73808 14.8071 7.85508 15.6801 8.09008C17.7651 6.72108 18.6801 7.00608 18.6801 7.00608C19.2761 8.46208 18.9011 9.53808 18.7881 9.80608C19.4881 10.5461 19.9111 11.4901 19.9111 12.6451C19.9111 16.7101 17.3581 17.6051 14.9251 17.8661C15.3171 18.1931 15.6661 18.8391 15.6661 19.8261C15.6661 20.7721 15.6601 22.4451 15.6561 23.5541C15.6541 24.1031 15.6531 24.5131 15.6531 24.6281C15.6531 24.7371 15.6821 24.8521 15.7481 24.9471V24.9471Z" fill="black" fill-rule="evenodd"/></svg>

<svg fill="none" viewBox="0 0 25 25" xmlns="http://www.w3.org/2000/svg"><path clip-rule="evenodd" d="M15.748 24.947c8.342-.24 9.163-1.997 9.163-11.966 0-11-1-12-12-12s-12 1-12 12c0 9.995.826 11.734 9.228 11.968a.503.503 0 0 0 .1-.32c0-.25-.01-2.817-.015-3.7-3.037.64-3.678-1.419-3.678-1.419-.497-1.222-1.213-1.548-1.213-1.548-.99-.656.075-.643.075-.643 1.096.075 1.673 1.091 1.673 1.091.974 1.617 2.556 1.15 3.178.88.1-.684.381-1.15.693-1.415-2.425-.267-4.974-1.175-4.974-5.23 0-1.155.426-2.099 1.124-2.839-.113-.268-.487-1.344.107-2.8 0 0 .917-.285 3.003 1.084a10.755 10.755 0 0 1 2.734-.356c.927.004 1.861.121 2.734.356 2.085-1.369 3-1.084 3-1.084.596 1.456.221 2.532.108 2.8.7.74 1.123 1.684 1.123 2.84 0 4.064-2.553 4.96-4.986 5.22.392.327.741.973.741 1.96a1298.915 1298.915 0 0 1-.013 4.802c0 .11.03.224.095.32z" fill="#e54a35" fill-rule="evenodd" class="fill-000000"></path></svg>
